uploads/2019/01/11/team-spirit-05.svg

<svg height="41" viewBox="0 0 41 41" width="41" xmlns="http://www.w3.org/2000/svg"><g fill="#04de47" fill-rule="evenodd" transform="translate(12.211268 3.278873)"><path d="m7.76470588 1.4c-.47578061.00496783-.94943461.06377513-1.4117647.17528 2.61772227.60332445 4.56836892 2.77640207 4.86945882 5.42472h2.8235294c-.3519964-3.17959725-3.055659-5.59003693-6.28122352-5.6z" opacity=".15"/><path d="m11.2224 8.4c-.3010899 2.6483179-2.25173655 4.8213956-4.86945882 5.42472.46233009.1115049.93598409.1703122 1.4117647.17528 3.22556452-.0099631 5.92922712-2.4204027 6.28122352-5.6z" opacity=".15"/><path d="m8.22098824 15.37396-.95195295 16.05142c-.04226852.6688699-.37684555 1.286123-.91609411 1.69008.40286149.3117631.89863983.4821777 1.40964706.48454 1.23415607.0000812 2.25496966-.952837 2.32941176-2.17448l.9947294-16.77396c-.8995889.4211018-1.87257068.6663724-2.86574116.7224z" opacity=".15"/><path d="m7.76470588 0c-3.3110272-.00232804-6.25875121 2.07913338-7.33962155 5.18268979s-.05671692 6.54533831 2.55006861 8.56979021l1.05261177 17.75578c.11652829 1.9608484 1.75406673 3.4918066 3.73482353 3.49174h.00409411c1.98075679.0000666 3.61829525-1.5308916 3.73482355-3.49174l1.0526117-17.75564c2.6068846-2.0244058 3.6311281-5.46622554 2.55028-8.56984124-1.0808482-3.10361571-4.0286153-5.1851234-7.33969172-5.18277876zm0 1.4c3.22556452.00996307 5.92922712 2.42040275 6.28122352 5.6h-12.56244705c.35199644-3.17959725 3.05565902-5.59003693 6.28122353-5.6zm2.32785882 30.02552c-.0737074 1.2214066-1.09405536 2.1745097-2.32792941 2.1745097-1.23387404 0-2.25422203-.9531031-2.32792941-2.1745097l-.99458823-16.7741c2.10074041.9980365 4.54443605.9980365 6.64517645 0zm-2.32785882-17.42552c-3.22556451-.0099631-5.92922709-2.4204027-6.28122353-5.6h12.56244705c-.3519964 3.1795973-3.055659 5.5900369-6.28122352 5.6z" fill-rule="nonzero"/></g></svg>

<?xml version="1.0" encoding="UTF-8"?>
<svg width="41px" height="41px" viewBox="0 0 41 41" version="1.1" xmlns="http://www.w3.org/2000/svg" xmlns:xlink="http://www.w3.org/1999/xlink">
    <!-- Generator: sketchtool 52.4 (67378) - http://www.bohemiancoding.com/sketch -->
    <title>22B635A3-1483-4845-B2E8-DB8689FC9552</title>
    <desc>Created with sketchtool.</desc>
    <g id="Page-1" stroke="none" stroke-width="1" fill="none" fill-rule="evenodd">
        <g id="Wunder-Careers-04-Cultures" transform="translate(-584.000000, -1749.000000)" fill="#04DE47">
            <g id="Team-Spirit-Copy" transform="translate(208.000000, 1007.000000)">
                <g id="Enginiering-Copy-5" transform="translate(351.000000, 514.000000)">
                    <g id="Group-18" transform="translate(25.211268, 228.278873)">
                        <g id="microphone-wireless" transform="translate(12.000000, 3.000000)">
                            <path d="M7.76470588,1.4 C7.28892527,1.40496783 6.81527127,1.46377513 6.35294118,1.57528 C8.97066345,2.17860445 10.9213101,4.35168207 11.2224,7 L14.0459294,7 C13.693933,3.82040275 10.9902704,1.40996307 7.76470588,1.4 Z" id="Path" opacity="0.149999991"></path>
                            <path d="M11.2224,8.4 C10.9213101,11.0483179 8.97066345,13.2213956 6.35294118,13.82472 C6.81527127,13.9362249 7.28892527,13.9950322 7.76470588,14 C10.9902704,13.9900369 13.693933,11.5795973 14.0459294,8.4 L11.2224,8.4 Z" id="Path" opacity="0.149999991"></path>
                            <path d="M8.22098824,15.37396 L7.26903529,31.42538 C7.22676677,32.0942499 6.89218974,32.711503 6.35294118,33.11546 C6.75580267,33.4272231 7.25158101,33.5976377 7.76258824,33.6 C8.99674431,33.6000812 10.0175579,32.647163 10.092,31.42552 L11.0867294,14.65156 C10.1871405,15.0726618 9.21415872,15.3179324 8.22098824,15.37396 Z" id="Path" opacity="0.149999991"></path>
                            <path d="M7.76470588,-6.21725148e-16 C4.45367868,-0.00232804213 1.50595467,2.07913338 0.425084329,5.18268979 C-0.65578601,8.2862462 0.368367405,11.7280281 2.97515294,13.75248 L4.02776471,31.50826 C4.144293,33.4691084 5.78183144,35.0000666 7.76258824,35 L7.76668235,35 C9.74743914,35.0000666 11.3849776,33.4691084 11.5015059,31.50826 L12.5541176,13.75262 C15.1610022,11.7282142 16.1852457,8.28639446 15.1043976,5.18277876 C14.0235494,2.07916305 11.0757823,-0.0023446379 7.76470588,-6.21725148e-16 Z M7.76470588,1.4 C10.9902704,1.40996307 13.693933,3.82040275 14.0459294,7 L1.48348235,7 C1.83547879,3.82040275 4.53914137,1.40996307 7.76470588,1.4 Z M10.0925647,31.42552 C10.0188573,32.6469266 8.99850934,33.6000297 7.76463529,33.6000297 C6.53076125,33.6000297 5.51041326,32.6469266 5.43670588,31.42552 L4.44211765,14.65142 C6.54285806,15.6494565 8.9865537,15.6494565 11.0872941,14.65142 L10.0925647,31.42552 Z M7.76470588,14 C4.53914137,13.9900369 1.83547879,11.5795973 1.48348235,8.4 L14.0459294,8.4 C13.693933,11.5795973 10.9902704,13.9900369 7.76470588,14 Z" id="Shape" fill-rule="nonzero"></path>
                        </g>
                    </g>
                </g>
            </g>
        </g>
    </g>
</svg>
